X:151
T:Fair Grove
C:Ron Pennington
N:Transcribed by Greg Rohrer
R:bluegrass
L:1/8
Q:1/4=190
M:4/4
K:G
[D8G,8] | 
K:C
|: "G"[FG,]G [G2G,2] [F2G,2] [G2G,2] | {_B}=BG FD _B,=B, G,2 | [FG,]G [G2G,2] [F2G,2] [G2G,2] | 
{_B}=BG Ac "C"[c2E2] [DG,][FG,] | "G"[G2G,2] [G2G,2] [F2G,2] [G2G,2] | {_B}=BG FD _B,=B, G,2 | 
{^c}d2 =cd {_B}=BG FD | "D"GF DB, "G"G,4 :|: "G"[g2d2D2] [g2d2D2] [c2D2] [d2D2] | 
{_B}=BG FD _B,=B, G,2 | [g2d2D2] [g2d2D2] [c2D2] [d2D2] | {_B}=BG Ac "C"[c4E4] | 
"G"[g2d2D2] [g2d2D2] [c2D2] [d2D2] | {_B}=BG FD _B,=B, G,2 | {^c}d2 =cd {_B}=BG FD | 
"D"GF DB, "G"G,4 :| "F"{E}(3FFF (3FFF {E}(3FFF (3FFF | (3FED (3DDD D4 | "G"[G2G,2] [GG,][GG,] {_B}=B2 GB | 
cB GF DB, G,2 | "F"{E}(3FFF (3FFF {E}(3FFF (3FFF | (3FED (3DDD D4 | "G"{^c}d2 =cd {_B}=BG FD | 
GF DB, G,4 | "F"{E}(3FFF (3FFF {E}(3FFF (3FFF | (3FED (3DDD D4 | "G"[G2G,2] [GG,][GG,] {_B}=B2 GB | 
cB GF DB, G,2 | "F"{E}(3FFF (3FFF {E}(3FFF (3FFF | (3FED (3DDD D4 | "A"A,^C EA c^c A2 | 
{f}"D"^fd =f^f d2 [DG,][FG,] | "G"[G2G,2] [G2G,2] [F2G,2] [G2G,2] | {_B}=BG FD _B,=B, G,2 | 
[FG,]G [G2G,2] [F2G,2] [G2G,2] | {_B}=BG Ac "C"[c2E2] [DG,][FG,] | "G"[G2G,2] [G2G,2] [F2G,2] [G2G,2] | 
{_B}=BG FD _B,=B, G,2 | {^c}d2 =cd {_B}=BG FD | "D"GF D_B,4z | "G"[D8G,8] | 


